X:119
T: LOOF AN DE LENGE
N: E1182
O: Europa, Mitteleuropa, Deutschland, Ost - Preussen, Koenigsberg
N: Fragment
R: Ansinge -, Brauchtums - Lied, Kirchen - Fest, Weihnachten
M: 2/4
L: 1/16
K: G
 | D4B3A | G4D2
D2 | E2E2F2F2 | G4D2
D2 | E4F4 | G4D2
D2 | E4F4 | G4D4

@@@ Tune index: 4803
